X:1
T:Title
%%score 1 { ( 2 3 ) | ( 4 5 ) }
L:1/8
Q:1/4=84
M:6/8
K:C
V:1 treble nm="Akkordion"
V:2 bass nm="Grand Piano"
V:3 bass 
V:4 bass 
V:5 bass 
V:1
 G>^FG A>^GA | B>AB c2 c | cBc dBG | B>cA G2 G | G>^FG A>^GA | B>AB c2 c | c>cd e>cA | G>AB .c3 | %8
w: T.~Martin~Towne * * * * *||||||||
 z6 | z6 | z6 | z6 | z6 | z6 | z6 |[M:5/8] z5 |] %16
w: ||||||||
V:2
 z EE z[K:treble] FF | G,FF[K:bass] z E[K:treble]E | z AA[K:bass] z[K:treble] G[_B,EG] | %3
 .[B,DG]2 [CD^F] .[G,B,DG]2 [G,B,D=FG] | z EE z[K:treble] FF | G,FF[K:bass] z E[K:treble][CEG] | %6
 [CFc]2 [DFc] [CEd]2 [C_EA] | [CEG]2 [FGB] .[EGc]3 | G>GG GGG | BBc d2 G | G>GG GGG | %11
 [Gc][Gc][Gd] [Ge]2 G | [Ge]>[Ge][Ge] [Ge][Gd]G | A>A[GA] [Fd]2 B | c>cc dcA |[M:5/8] Ged [Ec]2 |] %16
V:3
 .C,3 .F,3[K:treble] | z3[K:bass] .C,3[K:treble] | .A,3[K:bass] .B,,3[K:treble] | x6 | %4
 .C,3 .F,3[K:treble] | z3[K:bass] .C,3[K:treble] | x6 | x6 | x6 | x6 | x6 | x6 | x6 | x6 | x6 | %15
[M:5/8] x5 |] %16
V:4
 z [G,C][G,C] z [A,C][A,C] | z [G,B,D][G,B,D] z [G,C][G,C] | z [CE][CE] z [G,D][^C,,^C,] | %3
 .[D,,D,]2 [D,,D,] .G,,2 G,, | z [G,C][G,C] z [A,C][A,C] | z [G,B,D][G,B,D] z [G,C][_B,,_B,] | %6
 [A,,A,]2 [^G,,^G,] [=G,,=G,]2 [^F,,^F,] | [G,,G,]2 [G,,G,] .[C,,C,]3 | G,>G,G, G,G,G, | %9
 [G,DF][G,DF][G,CE] [G,B,G]2 G, | G,>G,G, G,G,[F,B,] | [E,C][E,C][D,B,] [C,C]2 [G,B,] | %12
 [C,C]>[C,C][C,C] [C,C][D,B,][E,C] | [F,CF]>[F,CF][E,^C] [D,D]2[K:treble] [G,DF] | %14
 [A,CE]>[A,CE][A,CE] [F,A,F][F,A,F][F,CF] |[M:5/8] [G,CE][G,CG][G,B,F][K:bass] [C,C]2 |] %16
V:5
 .C,,3 .F,,3 | .G,,3 .C,,3 | .A,,3 .B,,,3 | x6 | .C,,3 .F,,3 | .G,,3 .C,,3 | x6 | x6 | x6 | x6 | %10
 x6 | x6 | x6 | x5[K:treble] x | x6 |[M:5/8] x3[K:bass] x2 |] %16

